X:1
T: Mrs. Loch's Favourite
T: New Opera Dance
R:Jig
Q:180
K:G
M:6/8
L:1/16
d2|d2g2d2 e2g2e2|d2B2G2 G4B2|A4B2 G2D2G2|A4B2 A4d2|d2g2d2 e2g2e2|d2B2G2 G4B2|A4B2 G2D2G2|A4B2 G4b2|
b4g2 d2B2d2|e4g2 B6|c2d2e2 G4G2|A4B2 D6|b4g2 d2B2d2|e4g2 B4d2|c2d2e2 a4b2|c'2b2a2 g6|
b4g2 d2B2d2|e4g2 B6|c2d2e2 G4G2|A4B2 D6|b4g2 d2B2d2|e4g2 B4d2|c2d2e2 a4b2|c'2b2a2 g2f2e2|
d2g2d2 e2g2e2|d2B2G2 G4B2|A4B2 G2D2G2|A4B2 A4d2|d2g2d2 e2g2e2|d2B2G2 G4B2|A4B2 G2D2G2|A4B2 G4||
